lib/logo_tmp/nrk-logo-nrk-yr-radio.svg

<svg width="63" height="21" viewBox="0 0 63 21" fill="none" xmlns="http://www.w3.org/2000/svg">
<path d="M6.10352e-05 17.3333V3.3346H4.59345V17.3333H6.10352e-05ZM10.8428 5.56258L13.4845 17.3333H8.45743L5.30313 3.3346H8.1226C8.76913 3.32621 9.39647 3.55412 9.88698 3.97545C10.3783 4.37911 10.7158 4.93948 10.8428 5.56258ZM14.1745 17.3333V3.3346H18.7679V17.3333H14.1745ZM22.2373 8.65812C21.7423 8.66294 21.2553 8.53343 20.828 8.28346C20.4065 8.03981 20.0563 7.68962 19.8127 7.26803C19.5625 6.84072 19.4329 6.35355 19.4379 5.85837C19.4322 5.3662 19.5618 4.88194 19.8127 4.4585C20.0589 4.04149 20.4087 3.69511 20.828 3.45294C21.2554 3.20325 21.7423 3.07377 22.2373 3.07828C22.7293 3.07298 23.2134 3.20258 23.637 3.45294C24.0521 3.69723 24.3982 4.04332 24.6424 4.4585C24.893 4.88206 25.0226 5.36624 25.0173 5.85837C25.0219 6.35352 24.8924 6.8406 24.6424 7.26803C24.4007 7.68777 24.0543 8.03766 23.637 8.28346C23.2133 8.53431 22.7289 8.66394 22.2366 8.65812H22.2373ZM25.727 17.3333V3.3346H30.3208V17.3333H25.727ZM36.1361 10.9846C36.149 10.9982 36.2475 11.1592 36.4318 11.4676C36.616 11.7761 36.8558 12.1705 37.1513 12.6507C37.447 13.1307 37.7591 13.64 38.0874 14.1787C38.4158 14.7174 38.7248 15.2268 39.0144 15.7067C39.3028 16.1867 39.6314 16.7289 40.0001 17.3333H34.9532C34.6376 16.8207 34.3516 16.3574 34.0953 15.9433C33.839 15.5293 33.5666 15.0823 33.2779 14.6026C32.9885 14.1233 32.7024 13.6566 32.4196 13.2027C32.1368 12.7488 31.8938 12.3512 31.6905 12.0099C31.4864 11.6684 31.345 11.4383 31.2663 11.3198C31.0714 11.0257 30.956 10.686 30.9315 10.334C30.9511 9.99609 31.0598 9.66947 31.2466 9.3873C31.3255 9.25585 31.4701 9.0225 31.6803 8.68732C31.8906 8.35214 32.1371 7.95456 32.4196 7.49451C32.7022 7.03446 32.9883 6.56454 33.2779 6.08477C33.5675 5.605 33.8399 5.15477 34.0953 4.73416C34.352 4.31398 34.638 3.84735 34.9532 3.33428H40.0001L36.0963 9.70275C35.9755 9.89183 35.9074 10.1097 35.8991 10.334C35.9121 10.5694 35.9943 10.7957 36.1354 10.9846H36.1361Z" fill="white"/>
<path d="M56.5722 8.16905H55.1124C54.8938 8.17198 54.685 8.26012 54.5304 8.41474C54.3759 8.56936 54.2878 8.77825 54.285 8.99686V11.1134C54.547 10.9973 54.8268 10.9262 55.1124 10.9031H56.7219C56.9145 10.9125 57.107 10.8831 57.288 10.8166C57.469 10.7501 57.6348 10.6479 57.7755 10.516C57.9072 10.3752 58.0094 10.2094 58.0759 10.0284C58.1423 9.84743 58.1719 9.65495 58.1626 9.46237C58.1718 9.28698 58.1399 9.11187 58.0695 8.95098C57.9991 8.79009 57.8921 8.64783 57.7571 8.53552C57.416 8.28076 56.9976 8.15135 56.5722 8.16905Z" fill="white"/>
<path d="M52.3332 0C49.5927 0 46.9644 1.08869 45.0266 3.02653C43.0887 4.96438 42.0001 7.59265 42.0001 10.3332C42.0001 13.0737 43.0887 15.702 45.0266 17.6399C46.9644 19.5778 49.5927 20.6666 52.3332 20.6667C55.0738 20.6667 57.7022 19.578 59.6401 17.6401C61.578 15.7021 62.6667 13.0738 62.6667 10.3332C62.6666 7.59262 61.5779 4.96433 59.64 3.02649C57.7021 1.08866 55.0738 -1.33549e-09 52.3332 0ZM51.5551 12.2055C51.5477 14.4131 49.965 15.1151 49.3614 15.4661L48.3214 14.2079L48.3456 14.196L48.3214 14.1673C48.6559 13.9998 49.8983 13.3624 49.8983 12.3859V11.6487C49.7273 11.9959 48.8421 12.3888 48.2401 12.3988H48.1736C47.3171 12.4 46.491 12.0807 45.858 11.5036C45.5248 11.1807 45.2627 10.7917 45.0886 10.3616C44.9145 9.93151 44.8322 9.46976 44.847 9.006V6.78006H46.4616V9.006C46.4616 10.3009 47.3571 10.7726 48.2072 10.7845C48.9514 10.7742 49.8847 10.4516 49.917 9.4541V6.7788H51.5535L51.5551 12.2055ZM58.5671 13.5759C58.6562 13.6692 58.7681 13.7376 58.8917 13.7744C59.0153 13.8112 59.1464 13.8152 59.272 13.786L59.2698 15.1244H58.2903C58.2791 15.1244 58.2681 15.1264 58.2581 15.1264C58.2481 15.1264 58.2352 15.1264 58.2236 15.1244H58.1874V15.1225C57.9966 15.1066 57.8171 15.0252 57.6793 14.8921L55.7738 12.5578H55.114C54.8954 12.5607 54.6865 12.6489 54.5319 12.8036C54.3774 12.9583 54.2893 13.1673 54.2866 13.3859V15.1244H52.6316V8.99667C52.6325 8.3384 52.8942 7.70732 53.3596 7.24171C53.8249 6.77609 54.4558 6.51391 55.114 6.51263H56.5738C57.3851 6.49293 58.1779 6.75681 58.8155 7.2588C59.137 7.52717 59.3941 7.86424 59.568 8.24518C59.7418 8.62612 59.828 9.04122 59.8201 9.45989C59.8294 9.87023 59.7571 10.2783 59.6073 10.6605C59.4575 11.0426 59.2332 11.3911 58.9475 11.6858C58.588 12.0422 58.1425 12.2997 57.6542 12.4333C57.6542 12.4333 58.2129 13.1966 58.5671 13.5746V13.5759Z" fill="white"/>
</svg>

<svg xmlns="http://www.w3.org/2000/svg" viewBox="0 0 63 21"><path fill="#fff" d="M0 17.333V3.335h4.593v13.998H0Zm10.843-11.77 2.642 11.77H8.457L5.303 3.335h2.82a2.655 2.655 0 0 1 1.764.64c.491.404.829.964.956 1.588Zm3.332 11.77V3.335h4.593v13.998h-4.594Zm8.062-8.675a2.779 2.779 0 0 1-2.425-1.39 2.735 2.735 0 0 1-.374-1.41 2.685 2.685 0 0 1 .375-1.4 2.813 2.813 0 0 1 3.824-1.005c.415.244.761.59 1.005 1.006.251.423.38.907.375 1.4.005.495-.125.982-.375 1.409a2.8 2.8 0 0 1-1.005 1.015c-.424.251-.908.38-1.4.375Zm3.49 8.675V3.335h4.594v13.998h-4.594Zm10.41-6.348c.012.013.11.174.295.483.184.308.424.703.72 1.183a373.133 373.133 0 0 1 1.862 3.056c.289.48.617 1.022.986 1.626h-5.047c-.315-.512-.601-.976-.858-1.39-.256-.414-.528-.86-.817-1.34-.29-.48-.576-.946-.858-1.4a71.148 71.148 0 0 1-.73-1.193 20.758 20.758 0 0 0-.424-.69 2.041 2.041 0 0 1-.334-.986c.02-.338.128-.665.315-.947.079-.131.223-.364.433-.7a212.331 212.331 0 0 0 1.598-2.603l.817-1.35.858-1.4H40l-3.904 6.369c-.12.189-.189.407-.197.631.013.235.095.462.236.65h.001ZM56.572 8.17h-1.46a.839.839 0 0 0-.827.827v2.116a2.55 2.55 0 0 1 .827-.21h1.61a1.438 1.438 0 0 0 1.053-.387 1.442 1.442 0 0 0 .388-1.054 1.128 1.128 0 0 0-.406-.926 1.851 1.851 0 0 0-1.185-.367Z"/><path fill="#fff" d="M52.333 0a10.333 10.333 0 1 0 0 20.666 10.333 10.333 0 0 0 0-20.666Zm-.778 12.206c-.007 2.207-1.59 2.91-2.194 3.26l-1.04-1.258.025-.012-.025-.029c.335-.167 1.577-.805 1.577-1.781v-.737c-.17.347-1.056.74-1.658.75h-.066a3.43 3.43 0 0 1-2.316-.895 3.33 3.33 0 0 1-1.011-2.498V6.78h1.615v2.226c0 1.295.895 1.767 1.745 1.778.744-.01 1.678-.332 1.71-1.33V6.78h1.636l.002 5.427Zm7.012 1.37a.741.741 0 0 0 .705.21l-.002 1.338h-.98l-.032.002c-.01 0-.023 0-.034-.002h-.037v-.002a.83.83 0 0 1-.508-.23l-1.905-2.334h-.66a.839.839 0 0 0-.827.828v1.738h-1.655V8.997a2.487 2.487 0 0 1 2.482-2.484h1.46a3.487 3.487 0 0 1 2.242.746 2.799 2.799 0 0 1 1.004 2.2 3.098 3.098 0 0 1-.873 2.227c-.359.356-.805.614-1.293.747 0 0 .559.764.913 1.142Z"/></svg>
